src/16/actions/quickopen-function.svg

<svg xmlns="http://www.w3.org/2000/svg" viewBox="0 0 16 16"><path d="M4 2L2 5h1v2l2-3H4V2zm5 7v5h5V9H9zm-7 1v1h4v-1H2zm2 2v1h3v-1H4z" fill="currentColor" color="#5d656b"/></svg>

<svg xmlns="http://www.w3.org/2000/svg" viewBox="0 0 16 16">
  <defs id="defs3051">
    <style type="text/css" id="current-color-scheme">
      .ColorScheme-Text {
        color:#5d656b;
      }
      </style>
  </defs>
 <path 
     style="fill:currentColor;fill-opacity:1;stroke:none" 
     d="M 4 2 L 2 5 L 3 5 L 3 7 L 5 4 L 4 4 L 4 2 z M 9 9 L 9 14 L 14 14 L 14 9 L 9 9 z M 2 10 L 2 11 L 6 11 L 6 10 L 2 10 z M 4 12 L 4 13 L 7 13 L 7 12 L 4 12 z "
     class="ColorScheme-Text"/>
</svg>
